X: 35
T:Windermere Regatta. WI.035
M:C|
Q:160
C:"A Hornpipe"
S:Wm Irwin, 1838 MS, AGG's Transcription
R:Hornpipe
O:England
A:Lake District
Z:vmp.Chris Partington.2005
K:Bb
"qu"F2|FEDB dfdB|cBAc egec|Bfdf egdf|cfAc BABG|!
FEDB dfdB|cBAc egec|Bfdf cabe|d2B2 B2:|!
|:"qu"f2|fede fbfd|fgdf c2Fd|eeeB defg|BAcA F2FE|!
DB,DF dfff|EDEC eggg|Bfdf cabe|d2B2 B2:|]
